X:341
T:Sass Kat tune
M:C|
L:1/8
Q:1/4=140
C:© Paul Gitlitz, 2012
K:A
f=g>^g|"A6"a>ec>A "Bm7"B>AF>E|"C#m7"a>ec>A "D6"B>ce>g|"A6"a>ec>A "Bm7"B>AF>E|"D6"(3EGB d>c "E7"B>Ac>e|!
"A6"a>ec>A "Bm7"B>AF>E|"C#m7"a>ec>A "Bm7/D"B>ce>g|"A6"a>ec>A "Bm7"B>AF>E|"E7"(3EGB d>c B>c "A6"A2|!
|"Bm7"(3EGB d>c "E7"B>AG>E|"D6"(3EGB d>c "E7"B>Ac>B|"Bm7"(3EGB d>e "D6"f>ed>c|"E7"B>AG>F E>FG>E|!
"Bm7"(3EGB d>c "E7"B>AG>E|"D6"(3EGB d>c "E7"B>Ac>B|"Bm7"(3EGB d>e  "D6"f>ed>c|d>ef>e "E7"e>f=g>^g|]
